; generated by PrusaSlicer 2.4.0+x64 on 2022-03-10 at 07:32:39 UTC

; 

; external perimeters extrusion width = 0.45mm
; perimeters extrusion width = 0.45mm
; infill extrusion width = 0.45mm
; solid infill extrusion width = 0.45mm
; top infill extrusion width = 0.40mm
; first layer extrusion width = 0.42mm

; external perimeters extrusion width = 0.45mm
; perimeters extrusion width = 0.45mm
; infill extrusion width = 0.45mm
; solid infill extrusion width = 0.45mm
; top infill extrusion width = 0.40mm
; first layer extrusion width = 0.42mm

; external perimeters extrusion width = 0.45mm
; perimeters extrusion width = 0.45mm
; infill extrusion width = 0.45mm
; solid infill extrusion width = 0.45mm
; top infill extrusion width = 0.40mm
; first layer extrusion width = 0.42mm

; external perimeters extrusion width = 0.45mm
; perimeters extrusion width = 0.45mm
; infill extrusion width = 0.45mm
; solid infill extrusion width = 0.45mm
; top infill extrusion width = 0.40mm
; first layer extrusion width = 0.42mm

M201 X500 Y500 Z100 E5000 ; sets maximum accelerations, mm/sec^2
M203 X500 Y500 Z10 E60 ; sets maximum feedrates, mm/sec
M204 P500 R1000 T500 ; sets acceleration (P, T) and retract acceleration (R), mm/sec^2
M205 X8.00 Y8.00 Z0.40 E5.00 ; sets the jerk limits, mm/sec
M205 S0 T0 ; sets the minimum extruding and travel feed rate, mm/sec
M107
;TYPE:Custom
G90 ; use absolute coordinates
M83 ; extruder relative mode
M140 S85 ; set final bed temp
M104 S150 ; set temporary nozzle temp to prevent oozing during homing
G4 S10 ; allow partial nozzle warmup
G28 ; home all axis
G1 Z50 F240
G1 X2 Y10 F3000
M104 S250 ; set final nozzle temp
M190 S85 ; wait for bed temp to stabilize
M109 S250 ; wait for nozzle temp to stabilize
G1 Z0.28 F240
G92 E0
G1 Y140 E10 F1500 ; prime the nozzle
G1 X2.3 F5000
G92 E0
G1 Y10 E10 F1200 ; prime the nozzle
G92 E0
G21 ; set units to millimeters
G90 ; use absolute coordinates
M83 ; use relative distances for extrusion
; Filament gcode
M107
;LAYER_CHANGE
;Z:0.2
;HEIGHT:0.2
;BEFORE_LAYER_CHANGE
G92 E0
;0.2


G1 E-5 F3600
G1 Z.2 F9000
;AFTER_LAYER_CHANGE
;0.2
G1 X51.718 Y75.258
G1 E5 F2400
M204 S500
;TYPE:Skirt/Brim
;WIDTH:0.42
G1 F1200
G1 X52.313 Y74.912 E.02157
G1 X113.2 Y46.056 E2.11264
G1 X114.225 Y45.813 E.03301
G1 X114.932 Y45.76 E.02223
G1 X143.097 Y45.775 E.8831
G1 X144.512 Y46.056 E.04523
G1 X145.469 Y46.494 E.03301
G1 X146.02 Y46.862 E.02076
G1 X147.04 Y47.882 E.04522
G1 X147.767 Y49.16 E.0461
G1 X172.635 Y114.065 E2.17932
G1 X172.872 Y115.653 E.05034
G1 X175.372 Y161.682 E1.44532
G1 X175.21 Y163.592 E.0601
G1 X174.826 Y165.011 E.0461
G1 X174.225 Y166.353 E.0461
G1 X173.422 Y167.585 E.0461
G1 X172.436 Y168.675 E.0461
G1 X171.72 Y169.287 E.02952
G1 X170.488 Y170.09 E.0461
G1 X168.642 Y170.855 E.06265
G1 X167.204 Y171.157 E.0461
G1 X119 Y174.242 E1.51448
G1 X100.785 Y174.235 E.57112
G1 X53.785 Y171.235 E1.47665
G1 X52.273 Y171.075 E.04767
G1 X50.854 Y170.691 E.0461
G1 X49.512 Y170.09 E.0461
G1 X48.28 Y169.287 E.0461
G1 X47.189 Y168.301 E.0461
G1 X46.578 Y167.585 E.02952
G1 X45.534 Y165.881 E.06265
G1 X45.174 Y165.011 E.02952
G1 X44.79 Y163.592 E.0461
G1 X44.628 Y161.682 E.06011
G1 X47.131 Y115.604 E1.44685
G1 X49.656 Y78.902 E1.15351
G1 X49.87 Y77.729 E.03737
G1 X50.449 Y76.527 E.04185
G1 X51.126 Y75.73 E.0328
G1 X51.671 Y75.295 E.02184
G1 E-3.5 F3600
;WIPE_START
G1 F7200
G1 X52.313 Y74.912 E-.35506
G1 X54.348 Y73.947 E-1.06994
;WIPE_END
G1 E-.075 F3600
G1 X122.193 Y87.439 F9000
G1 E5 F2400
;TYPE:Perimeter
G1 F1200
G1 X122.219 Y87.306 E.00422
G1 X122.426 Y86.866 E.01527
G1 X122.736 Y86.491 E.01527
G1 X123.13 Y86.204 E.01527
G1 X123.583 Y86.025 E.01527
G1 X124.026 Y85.969 E.01401
G1 X124.543 Y86.023 E.01629
G1 X125.002 Y86.204 E.01548
G1 X125.396 Y86.491 E.01527
G1 X125.706 Y86.866 E.01527
G1 X125.914 Y87.306 E.01527
G1 X126.005 Y87.785 E.01527
G1 X125.974 Y88.271 E.01527
G1 X125.824 Y88.734 E.01527
G1 X125.563 Y89.145 E.01527
G1 X125.208 Y89.478 E.01527
G1 X124.781 Y89.713 E.01527
G1 X124.31 Y89.834 E.01527
G1 X123.823 Y89.834 E.01527
G1 X123.351 Y89.713 E.01527
G1 X122.924 Y89.478 E.01527
G1 X122.569 Y89.145 E.01527
G1 X122.308 Y88.734 E.01527
G1 X122.158 Y88.271 E.01527
G1 X122.127 Y87.785 E.01527
G1 X122.182 Y87.497 E.00917
G1 X122.507 Y87.809 F9000
;TYPE:External perimeter
G1 F1200
G1 X122.58 Y87.424 E.01228
G1 X122.747 Y87.069 E.01228
G1 X122.996 Y86.768 E.01228
G1 X123.313 Y86.537 E.01228
G1 X123.677 Y86.393 E.01228
G1 X124.03 Y86.349 E.01115
G1 X124.452 Y86.392 E.0133
G1 X124.819 Y86.537 E.01236
G1 X125.136 Y86.768 E.01228
G1 X125.385 Y87.069 E.01228
G1 X125.552 Y87.424 E.01228
G1 X125.625 Y87.808 E.01228
G1 X125.601 Y88.199 E.01228
G1 X125.48 Y88.572 E.01228
G1 X125.27 Y88.903 E.01228
G1 X124.984 Y89.171 E.01228
G1 X124.641 Y89.359 E.01228
G1 X124.262 Y89.457 E.01228
G1 X123.87 Y89.457 E.01228
G1 X123.491 Y89.359 E.01228
G1 X123.148 Y89.171 E.01228
G1 X122.862 Y88.903 E.01228
G1 X122.652 Y88.572 E.01228
G1 X122.531 Y88.199 E.01228
G1 X122.51 Y87.868 E.0104
G1 X122.18 Y87.592 F9000
G1 E-3.5 F3600
;WIPE_START
G1 F7200
G1 X122.58 Y87.424 E-.21376
G1 X122.747 Y87.069 E-.18604
G1 X122.996 Y86.768 E-.18603
G1 X123.313 Y86.537 E-.18604
G1 X123.677 Y86.393 E-.18603
G1 X124.03 Y86.349 E-.16898
G1 X124.452 Y86.392 E-.20151
G1 X124.642 Y86.467 E-.0966
;WIPE_END
G1 E-.075 F3600
G1 X123.481 Y71.497 F9000
G1 E5 F2400
;TYPE:Perimeter
G1 F1200
G1 X123.351 Y71.463 E.00422
G1 X122.924 Y71.229 E.01527
G1 X122.569 Y70.896 E.01527
G1 X122.308 Y70.484 E.01527
G1 X122.158 Y70.021 E.01527
G1 X122.127 Y69.535 E.01527
G1 X122.219 Y69.057 E.01527
G1 X122.426 Y68.616 E.01527
G1 X122.736 Y68.241 E.01527
G1 X123.13 Y67.955 E.01527
G1 X123.583 Y67.776 E.01527
G1 X124.026 Y67.72 E.01401
G1 X124.543 Y67.773 E.01629
G1 X125.002 Y67.955 E.01548
G1 X125.396 Y68.241 E.01527
G1 X125.706 Y68.616 E.01527
G1 X125.914 Y69.057 E.01527
G1 X126.005 Y69.535 E.01527
G1 X125.974 Y70.021 E.01527
G1 X125.824 Y70.484 E.01527
G1 X125.563 Y70.896 E.01527
G1 X125.208 Y71.229 E.01527
G1 X124.781 Y71.463 E.01527
G1 X124.31 Y71.585 E.01527
G1 X123.823 Y71.585 E.01527
G1 X123.539 Y71.512 E.00917
G1 X123.87 Y71.207 F9000
;TYPE:External perimeter
G1 F1200
G1 X123.491 Y71.11 E.01228
G1 X123.148 Y70.921 E.01228
G1 X122.862 Y70.653 E.01228
G1 X122.652 Y70.323 E.01228
G1 X122.531 Y69.95 E.01228
G1 X122.507 Y69.559 E.01228
G1 X122.58 Y69.174 E.01228
G1 X122.747 Y68.82 E.01228
G1 X122.996 Y68.518 E.01228
G1 X123.313 Y68.288 E.01228
G1 X123.677 Y68.144 E.01228
G1 X124.03 Y68.099 E.01115
G1 X124.452 Y68.143 E.0133
G1 X124.819 Y68.288 E.01236
G1 X125.136 Y68.518 E.01228
G1 X125.385 Y68.82 E.01228
G1 X125.552 Y69.174 E.01228
G1 X125.625 Y69.559 E.01228
G1 X125.601 Y69.95 E.01228
G1 X125.48 Y70.323 E.01228
G1 X125.27 Y70.653 E.01228
G1 X124.984 Y70.921 E.01228
G1 X124.641 Y71.11 E.01228
G1 X124.262 Y71.207 E.01228
G1 X123.93 Y71.207 E.0104
G1 X123.633 Y71.519 F9000
G1 E-3.5 F3600
;WIPE_START
G1 F7200
G1 X123.491 Y71.11 E-.21377
G1 X123.148 Y70.921 E-.18604
G1 X122.862 Y70.653 E-.18604
G1 X122.652 Y70.323 E-.18604
G1 X122.531 Y69.95 E-.18604
G1 X122.507 Y69.559 E-.18603
G1 X122.58 Y69.174 E-.18604
G1 X122.665 Y68.993 E-.09501
;WIPE_END
G1 E-.075 F3600
G1 X113.633 Y70.807 F9000
G1 E5 F2400
;TYPE:Perimeter
G1 F1200
G1 X113.633 Y51.169 E.61575
G1 X113.662 Y50.88 E.00911
G1 X113.736 Y50.634 E.00805
G1 X113.857 Y50.408 E.00805
G1 X114.02 Y50.209 E.00805
G1 X114.219 Y50.046 E.00805
G1 X114.445 Y49.925 E.00805
G1 X114.691 Y49.851 E.00805
G1 X114.98 Y49.822 E.00911
G1 X142.733 Y49.822 E.87016
G1 X143.022 Y49.851 E.00911
G1 X143.267 Y49.925 E.00805
G1 X143.494 Y50.046 E.00805
G1 X143.692 Y50.209 E.00805
G1 X143.855 Y50.408 E.00805
G1 X143.976 Y50.634 E.00805
G1 X144.051 Y50.88 E.00805
G1 X144.079 Y51.169 E.00911
G1 X144.079 Y104.322 E1.66656
G1 X144.051 Y104.611 E.00911
G1 X143.976 Y104.856 E.00805
G1 X143.855 Y105.083 E.00805
G1 X143.692 Y105.281 E.00805
G1 X143.494 Y105.444 E.00805
G1 X143.267 Y105.565 E.00805
G1 X143.022 Y105.64 E.00805
G1 X142.732 Y105.668 E.00911
G1 X114.98 Y105.668 E.87016
G1 X114.691 Y105.64 E.00911
G1 X114.445 Y105.565 E.00805
G1 X114.219 Y105.444 E.00805
G1 X114.02 Y105.281 E.00805
G1 X113.857 Y105.083 E.00805
G1 X113.736 Y104.856 E.00805
G1 X113.662 Y104.611 E.00805
G1 X113.633 Y104.322 E.00911
G1 X113.633 Y70.867 E1.04893
G1 X113.256 Y71.207 F9000
;TYPE:External perimeter
G1 F1200
G1 X113.256 Y51.151 E.62887
G1 X113.29 Y50.806 E.01086
G1 X113.386 Y50.489 E.01038
G1 X113.542 Y50.197 E.01038
G1 X113.752 Y49.941 E.01038
G1 X114.008 Y49.731 E.01038
G1 X114.3 Y49.575 E.01038
G1 X114.617 Y49.479 E.01038
G1 X114.961 Y49.445 E.01086
G1 X142.751 Y49.445 E.87133
G1 X143.096 Y49.479 E.01085
G1 X143.412 Y49.575 E.01038
G1 X143.704 Y49.731 E.01038
G1 X143.96 Y49.941 E.01038
G1 X144.17 Y50.197 E.01038
G1 X144.326 Y50.489 E.01038
G1 X144.422 Y50.806 E.01038
G1 X144.456 Y51.151 E.01086
G1 X144.456 Y104.34 E1.66772
G1 X144.422 Y104.685 E.01086
G1 X144.326 Y105.001 E.01038
G1 X144.17 Y105.293 E.01038
G1 X143.96 Y105.549 E.01038
G1 X143.704 Y105.759 E.01038
G1 X143.412 Y105.915 E.01038
G1 X143.096 Y106.011 E.01038
G1 X142.751 Y106.045 E.01086
G1 X114.961 Y106.045 E.87132
G1 X114.617 Y106.011 E.01086
G1 X114.3 Y105.915 E.01038
G1 X114.008 Y105.759 E.01038
G1 X113.752 Y105.549 E.01038
G1 X113.542 Y105.293 E.01038
G1 X113.386 Y105.001 E.01038
G1 X113.29 Y104.685 E.01038
G1 X113.256 Y104.34 E.01086
G1 X113.256 Y71.267 E1.03697
G1 X113.602 Y71.007 F9000
G1 E-3.5 F3600
;WIPE_START
G1 F7200
G1 X113.256 Y68.267 E-1.425
;WIPE_END
G1 E-.075 F3600
G1 X143.966 Y51.419 F9000
G1 E5 F2400
;TYPE:Solid infill
;WIDTH:0.420981
G1 F1200
G1 X142.652 Y50.105 E.05841
G1 X142.117 Y50.105 E.01681
G1 X143.796 Y51.784 E.07464
G1 X143.796 Y52.319 E.01681
G1 X141.583 Y50.105 E.09841
G1 X141.048 Y50.105 E.01681
G1 X143.796 Y52.853 E.12218
G1 X143.796 Y53.388 E.01681
G1 X140.513 Y50.105 E.14594
G1 X139.979 Y50.105 E.01681
G1 X143.796 Y53.923 E.16971
G1 X143.796 Y54.457 E.01681
G1 X139.444 Y50.105 E.19348
G1 X138.909 Y50.105 E.01681
G1 X143.796 Y54.992 E.21725
G1 X143.796 Y55.527 E.01681
G1 X138.375 Y50.105 E.24102
G1 X137.84 Y50.105 E.01681
G1 X143.796 Y56.061 E.26479
G1 X143.796 Y56.596 E.01681
G1 X137.305 Y50.105 E.28856
G1 X136.771 Y50.105 E.01681
G1 X143.796 Y57.131 E.31233
G1 X143.796 Y57.665 E.01681
G1 X136.236 Y50.105 E.3361
G1 X135.701 Y50.105 E.01681
G1 X143.796 Y58.2 E.35987
G1 X143.796 Y58.735 E.01681
G1 X135.167 Y50.105 E.38364
G1 X134.632 Y50.105 E.01681
G1 X143.796 Y59.269 E.40741
G1 X143.796 Y59.804 E.01681
G1 X134.097 Y50.105 E.43118
G1 X133.563 Y50.105 E.01681
G1 X143.796 Y60.339 E.45495
G1 X143.796 Y60.873 E.01681
G1 X133.028 Y50.105 E.47872
G1 X132.494 Y50.105 E.01681
G1 X143.796 Y61.408 E.50249
G1 X143.796 Y61.943 E.01681
G1 X131.959 Y50.105 E.52626
G1 X131.424 Y50.105 E.01681
G1 X143.796 Y62.477 E.55002
G1 X143.796 Y63.012 E.01681
G1 X130.89 Y50.105 E.57379
G1 X130.355 Y50.105 E.01681
G1 X143.796 Y63.547 E.59756
G1 X143.796 Y64.081 E.01681
G1 X129.82 Y50.105 E.62133
G1 X129.286 Y50.105 E.01681
G1 X143.796 Y64.616 E.6451
G1 X143.796 Y65.151 E.01681
G1 X128.751 Y50.105 E.66887
G1 X128.216 Y50.105 E.01681
G1 X143.796 Y65.685 E.69264
G1 X143.796 Y66.22 E.01681
G1 X127.682 Y50.105 E.71641
G1 X127.147 Y50.105 E.01681
G1 X143.796 Y66.755 E.74018
G1 X143.796 Y67.289 E.01681
G1 X126.612 Y50.105 E.76395
G1 X126.078 Y50.105 E.01681
G1 X143.796 Y67.824 E.78772
G1 X143.796 Y68.359 E.01681
G1 X125.543 Y50.105 E.81149
G1 X125.008 Y50.105 E.01681
G1 X143.796 Y68.893 E.83526
G1 X143.796 Y69.428 E.01681
G1 X124.474 Y50.105 E.85903
G1 X123.939 Y50.105 E.01681
G1 X143.796 Y69.962 E.8828
G1 X143.796 Y70.497 E.01681
G1 X123.404 Y50.105 E.90657
G1 X122.87 Y50.105 E.01681
G1 X143.796 Y71.032 E.93033
G1 X143.796 Y71.566 E.01681
G1 X122.335 Y50.105 E.9541
G1 X121.8 Y50.105 E.01681
G1 X143.796 Y72.101 E.97787
G1 X143.796 Y72.636 E.01681
G1 X121.266 Y50.105 E1.00164
G1 X120.731 Y50.105 E.01681
G1 X143.796 Y73.17 E1.02541
G1 X143.796 Y73.705 E.01681
G1 X120.196 Y50.105 E1.04918
G1 X119.662 Y50.105 E.01681
G1 X143.796 Y74.24 E1.07295
G1 X143.796 Y74.774 E.01681
G1 X119.127 Y50.105 E1.09672
G1 X118.592 Y50.105 E.01681
G1 X143.796 Y75.309 E1.12049
G1 X143.796 Y75.844 E.01681
G1 X118.058 Y50.105 E1.14426
G1 X117.523 Y50.105 E.01681
G1 X143.796 Y76.378 E1.16803
G1 X143.796 Y76.913 E.01681
G1 X116.988 Y50.105 E1.1918
G1 X116.454 Y50.105 E.01681
G1 X143.796 Y77.448 E1.21557
G1 X143.796 Y77.982 E.01681
G1 X115.919 Y50.105 E1.23934
G1 X115.384 Y50.105 E.01681
G1 X143.796 Y78.517 E1.26311
G1 X143.796 Y79.052 E.01681
G1 X114.863 Y50.118 E1.2863
G1 X114.746 Y50.13 E.00368
G1 X114.554 Y50.188 E.00632
G1 X114.452 Y50.242 E.00362
G1 X143.796 Y79.586 E1.30455
G1 X143.796 Y80.121 E.01681
G1 X114.16 Y50.485 E1.31754
G1 X114.093 Y50.566 E.00329
G1 X113.972 Y50.831 E.00919
G1 X143.796 Y80.656 E1.3259
G1 X143.796 Y81.19 E.01681
G1 X113.916 Y51.31 E1.32839
G1 X113.916 Y51.845 E.01681
G1 X143.796 Y81.725 E1.32839
G1 X143.796 Y82.26 E.01681
G1 X113.916 Y52.379 E1.32839
G1 X113.916 Y52.914 E.01681
G1 X143.796 Y82.794 E1.32839
G1 X143.796 Y83.329 E.01681
G1 X113.916 Y53.449 E1.32839
G1 X113.916 Y53.983 E.01681
G1 X143.796 Y83.864 E1.32839
G1 X143.796 Y84.398 E.01681
G1 X113.916 Y54.518 E1.32839
G1 X113.916 Y55.053 E.01681
G1 X143.796 Y84.933 E1.32839
G1 X143.796 Y85.468 E.01681
G1 X113.916 Y55.587 E1.32839
G1 X113.916 Y56.122 E.01681
G1 X143.796 Y86.002 E1.32839
G1 X143.796 Y86.537 E.01681
G1 X126.146 Y68.886 E.78469
G1 X125.947 Y68.464 E.01469
G1 X125.591 Y68.033 E.01755
G1 X125.139 Y67.705 E.01755
G1 X124.85 Y67.591 E.00977
G1 X113.916 Y56.657 E.4861
G1 X113.916 Y57.191 E.01681
G1 X124.176 Y67.451 E.45611
G1 X124.023 Y67.435 E.00482
G1 X123.67 Y67.48 E.01119
G1 X113.916 Y57.726 E.43363
G1 X113.916 Y58.261 E.01681
G1 X123.256 Y67.601 E.41524
G1 X122.993 Y67.705 E.00891
G1 X122.896 Y67.776 E.00376
G1 X113.916 Y58.795 E.39923
G1 X113.916 Y59.33 E.01681
G1 X122.587 Y68.001 E.38547
G1 X122.335 Y68.283 E.0119
G1 X113.916 Y59.865 E.37427
G1 X113.916 Y60.399 E.01681
G1 X122.12 Y68.603 E.36471
G1 X121.949 Y68.967 E.01263
G1 X113.916 Y60.934 E.35711
G1 X113.916 Y61.469 E.01681
G1 X121.862 Y69.415 E.35327
G1 X121.843 Y69.517 E.00328
G1 X121.871 Y69.958 E.01387
G1 X113.746 Y61.834 E.36118
G1 E-3.5 F3600
;WIPE_START
G1 F7200
G1 X115.868 Y63.955 E-1.425
;WIPE_END
G1 E-.075 F3600
G1 X126.087 Y69.362 F9000
G1 E5 F2400
G1 F1200
G1 X143.796 Y87.072 E.78731
G1 X143.796 Y87.606 E.01681
G1 X126.255 Y70.065 E.77984
G1 X126.126 Y70.47 E.01338
G1 X143.796 Y88.141 E.78558
G1 X143.796 Y88.676 E.01681
G1 X125.944 Y70.823 E.79367
G1 X125.782 Y71.077 E.00946
G1 X125.721 Y71.135 E.00265
G1 X143.796 Y89.21 E.80357
G1 X143.796 Y89.745 E.01681
G1 X125.445 Y71.394 E.81583
G1 X125.375 Y71.459 E.00301
G1 X125.118 Y71.601 E.00924
G1 X143.796 Y90.28 E.83039
G1 X143.796 Y90.814 E.01681
G1 X124.746 Y71.764 E.8469
G1 X124.315 Y71.867 E.01395
G1 X143.796 Y91.349 E.86609
G1 X143.796 Y91.883 E.01681
G1 X123.542 Y71.629 E.90044
G1 E-3.5 F3600
;WIPE_START
G1 F7200
G1 X125.663 Y73.751 E-1.425
;WIPE_END
G1 E-.075 F3600
G1 X113.746 Y62.368 F9000
G1 E5 F2400
G1 F1200
G1 X143.796 Y92.418 E1.33593
G1 X143.796 Y92.953 E.01681
G1 X113.916 Y63.073 E1.32839
G1 X113.916 Y63.607 E.01681
G1 X143.796 Y93.487 E1.32839
G1 X143.796 Y94.022 E.01681
G1 X113.916 Y64.142 E1.32839
G1 X113.916 Y64.677 E.01681
G1 X143.796 Y94.557 E1.32839
G1 X143.796 Y95.091 E.01681
G1 X113.916 Y65.211 E1.32839
G1 X113.916 Y65.746 E.01681
G1 X143.796 Y95.626 E1.32839
G1 X143.796 Y96.161 E.01681
G1 X113.916 Y66.281 E1.32839
G1 X113.916 Y66.815 E.01681
G1 X143.796 Y96.695 E1.32839
G1 X143.796 Y97.23 E.01681
G1 X113.916 Y67.35 E1.32839
G1 X113.916 Y67.885 E.01681
G1 X143.796 Y97.765 E1.32839
G1 X143.796 Y98.299 E.01681
G1 X113.916 Y68.419 E1.32839
G1 X113.916 Y68.954 E.01681
G1 X143.796 Y98.834 E1.32839
G1 X143.796 Y99.369 E.01681
G1 X113.916 Y69.488 E1.32839
G1 X113.916 Y70.023 E.01681
G1 X143.796 Y99.903 E1.32839
G1 X143.796 Y100.438 E.01681
G1 X113.916 Y70.558 E1.32839
G1 X113.916 Y71.092 E.01681
G1 X143.796 Y100.973 E1.32839
G1 X143.796 Y101.507 E.01681
